X: 34961
T: Rocky Road To Mount Collins, The
R: polka
M: 2/4
K: Amajor
|:F/|E2 EF|A2 EA|c2 B>c|BA A/G/F|
E2 EF|A2- AE/A/|c2 B>c|BA A3/2:|
|:B/|ce e^d/e/|fe cB|ce AA/B/|ce BA/B/|
ce- e^d/e/|f/g/f/e/ c/B/A/B/|ce B>c|BA A3/2:|

